public/piece/mpchess/wQ.svg

<?xml version="1.0" encoding="UTF-8" standalone="no"?>
<svg
   xmlns:dc="http://purl.org/dc/elements/1.1/"
   xmlns:cc="http://creativecommons.org/ns#"
   xmlns:rdf="http://www.w3.org/1999/02/22-rdf-syntax-ns#"
   xmlns:svg="http://www.w3.org/2000/svg"
   xmlns="http://www.w3.org/2000/svg"
   xmlns:sodipodi="http://sodipodi.sourceforge.net/DTD/sodipodi-0.dtd"
   xmlns:inkscape="http://www.inkscape.org/namespaces/inkscape"
   width="10mm"
   height="10mm"
   viewBox="0 0 10 10"
   version="1.1"
   id="svg8"
   sodipodi:docname="wQ.svg"
   inkscape:version="0.92.5 (2060ec1f9f, 2020-04-08)">
  <sodipodi:namedview
     pagecolor="#ffffff"
     bordercolor="#666666"
     borderopacity="1"
     objecttolerance="10"
     gridtolerance="10"
     guidetolerance="10"
     inkscape:pageopacity="0"
     inkscape:pageshadow="2"
     inkscape:window-width="2560"
     inkscape:window-height="1409"
     id="namedview9"
     showgrid="false"
     inkscape:zoom="16"
     inkscape:cx="-4.165359"
     inkscape:cy="32.637174"
     inkscape:window-x="2560"
     inkscape:window-y="0"
     inkscape:window-maximized="1"
     inkscape:current-layer="g906"
     showguides="true"
     inkscape:guide-bbox="true"
     inkscape:document-units="mm"
     inkscape:lockguides="false">
    <sodipodi:guide
       position="4.0898336,2.7939706"
       orientation="0,1"
       id="guide852"
       inkscape:locked="false" />
    <inkscape:grid
       type="xygrid"
       id="grid884" />
    <sodipodi:guide
       position="4.9886982,7.1309921"
       orientation="1,0"
       id="guide836"
       inkscape:locked="false" />
    <sodipodi:guide
       position="2.9962151,2.7939673"
       orientation="1,0"
       id="guide838"
       inkscape:locked="false" />
    <sodipodi:guide
       position="6.9961624,5.1534901"
       orientation="1,0"
       id="guide842"
       inkscape:locked="false" />
    <sodipodi:guide
       position="5.2180198,9.1001095"
       orientation="0,1"
       id="guide844"
       inkscape:locked="false" />
    <sodipodi:guide
       position="7.6553297,8.4343457"
       orientation="0,1"
       id="guide846"
       inkscape:locked="false" />
    <sodipodi:guide
       position="8.4005206,8.9296872"
       orientation="1,0"
       id="guide850"
       inkscape:locked="false" />
    <sodipodi:guide
       position="1.6040364,9.5663409"
       orientation="1,0"
       id="guide853"
       inkscape:locked="false" />
    <sodipodi:guide
       position="4.9886982,5.2883197"
       orientation="0,1"
       id="guide855"
       inkscape:locked="false" />
    <sodipodi:guide
       position="3.5804771,5.6778277"
       orientation="1,0"
       id="guide857"
       inkscape:locked="false" />
    <sodipodi:guide
       position="6.3969194,4.6291524"
       orientation="1,0"
       id="guide859"
       inkscape:locked="false" />
    <sodipodi:guide
       position="6.2921222,9.2686846"
       orientation="1,0"
       id="guide917"
       inkscape:locked="false" />
    <sodipodi:guide
       position="3.7041666,8.7725909"
       orientation="1,0"
       id="guide919"
       inkscape:locked="false" />
    <sodipodi:guide
       position="4.2664061,7.077604"
       orientation="0,1"
       id="guide832"
       inkscape:locked="false" />
    <sodipodi:guide
       position="4.7459634,7.4000649"
       orientation="0,1"
       id="guide834"
       inkscape:locked="false" />
    <sodipodi:guide
       position="7.7059894,7.5902342"
       orientation="1,0"
       id="guide837"
       inkscape:locked="false" />
    <sodipodi:guide
       position="2.2902994,8.2847654"
       orientation="1,0"
       id="guide839"
       inkscape:locked="false" />
    <sodipodi:guide
       position="8.6154945,7.9705727"
       orientation="0,1"
       id="guide841"
       inkscape:locked="false" />
    <sodipodi:guide
       position="5.5066405,9.0335887"
       orientation="1,0"
       id="guide843"
       inkscape:locked="false" />
    <sodipodi:guide
       position="4.4979165,9.0335887"
       orientation="1,0"
       id="guide845"
       inkscape:locked="false" />
    <sodipodi:guide
       position="7.9953774,8.0863279"
       orientation="1,0"
       id="guide849"
       inkscape:locked="false" />
    <sodipodi:guide
       position="5.0849608,8.3261065"
       orientation="0,1"
       id="guide866"
       inkscape:locked="false" />
    <sodipodi:guide
       position="9.0206378,7.077604"
       orientation="1,0"
       id="guide868"
       inkscape:locked="false" />
    <sodipodi:guide
       position="1.0087239,7.9705727"
       orientation="1,0"
       id="guide870"
       inkscape:locked="false" />
  </sodipodi:namedview>
  <defs
     id="defs2" />
  <metadata
     id="metadata5">
    <rdf:RDF>
      <cc:Work
         rdf:about="">
        <dc:format>image/svg+xml</dc:format>
        <dc:type
           rdf:resource="http://purl.org/dc/dcmitype/StillImage" />
        <dc:title />
      </cc:Work>
    </rdf:RDF>
  </metadata>
  <g
     id="layer1"
     transform="translate(0,-287)"
     style="fill:#ffffff;fill-opacity:1">
    <g
       id="g906"
       style="fill:#ffffff;fill-opacity:1;stroke-width:0.09651081;stroke-miterlimit:4;stroke-dasharray:none"
       transform="matrix(1.0736137,0,0,1,-0.23322654,0.02910263)">
      <path
         d="m 6.5422048,294.17824 c 1.077612,0 1.124675,0.85728 1.124675,1.49455 H 2.068755 c 0,-0.64896 0.046562,-1.49455 1.1241734,-1.49455 z"
         style="fill:#ffffff;fill-opacity:1;stroke:#000000;stroke-width:0.38604325;stroke-linecap:butt;stroke-linejoin:miter;stroke-miterlimit:4;stroke-dasharray:none;stroke-opacity:1"
         id="path886-5" />
      <path
         style="fill:#ffffff;fill-opacity:1;stroke:#000000;stroke-width:1.51181102;stroke-linecap:butt;stroke-linejoin:miter;stroke-opacity:1;stroke-miterlimit:4;stroke-dasharray:none"
         d="M 15.013672 3.8730469 A 3.016314 3.0163139 0 0 0 11.996094 6.8886719 A 3.016314 3.0163139 0 0 0 13.90625 9.6933594 L 13.533203 17.808594 L 9.5488281 11.285156 A 3.016314 3.0163139 0 0 0 10.078125 9.5761719 A 3.016314 3.0163139 0 0 0 7.0625 6.5605469 A 3.016314 3.0163139 0 0 0 4.046875 9.5761719 A 3.016314 3.0163139 0 0 0 6.5507812 12.546875 L 11.324219 27.236328 L 26.470703 27.236328 L 31.230469 12.636719 A 3.016314 3.0163139 0 0 0 33.826172 9.6542969 A 3.016314 3.0163139 0 0 0 30.810547 6.6386719 A 3.016314 3.0163139 0 0 0 27.794922 9.6542969 A 3.016314 3.0163139 0 0 0 28.25 11.238281 L 24.177734 17.808594 L 23.859375 9.6796875 A 3.016314 3.0163139 0 0 0 25.734375 6.8886719 A 3.016314 3.0163139 0 0 0 22.71875 3.8730469 A 3.016314 3.0163139 0 0 0 19.703125 6.8886719 A 3.016314 3.0163139 0 0 0 20.556641 8.9921875 L 18.855469 17.808594 L 17.230469 8.9296875 A 3.016314 3.0163139 0 0 0 18.029297 6.8886719 A 3.016314 3.0163139 0 0 0 15.013672 3.8730469 z "
         transform="matrix(0.24644184,0,0,0.26458333,0.21723506,286.9709)"
         id="path854" />
    </g>
  </g>
</svg>

<svg xmlns="http://www.w3.org/2000/svg" width="10mm" height="10mm" viewBox="0 0 10 10"><g style="fill:#fff;fill-opacity:1"><g style="fill:#fff;fill-opacity:1;stroke-width:.09651081;stroke-miterlimit:4;stroke-dasharray:none"><path d="M6.542 294.178c1.078 0 1.125.858 1.125 1.495H2.069c0-.65.046-1.495 1.124-1.495z" style="fill:#fff;fill-opacity:1;stroke:#000;stroke-width:.38604325;stroke-linecap:butt;stroke-linejoin:miter;stroke-miterlimit:4;stroke-dasharray:none;stroke-opacity:1" transform="matrix(1.07361 0 0 1 -.233 -286.97)"/><path d="M15.014 3.873a3.016 3.016 0 0 0-3.018 3.016 3.016 3.016 0 0 0 1.91 2.804l-.373 8.116-3.984-6.524a3.016 3.016 0 0 0 .53-1.709 3.016 3.016 0 0 0-3.017-3.015 3.016 3.016 0 0 0-3.015 3.015 3.016 3.016 0 0 0 2.504 2.97l4.773 14.69h15.147l4.76-14.6a3.016 3.016 0 0 0 2.595-2.982 3.016 3.016 0 0 0-3.015-3.015 3.016 3.016 0 0 0-3.016 3.015 3.016 3.016 0 0 0 .455 1.584l-4.072 6.57-.319-8.128a3.016 3.016 0 0 0 1.875-2.791 3.016 3.016 0 0 0-3.015-3.016 3.016 3.016 0 0 0-3.016 3.016 3.016 3.016 0 0 0 .854 2.103l-1.702 8.817-1.625-8.88a3.016 3.016 0 0 0 .8-2.04 3.016 3.016 0 0 0-3.016-3.016z" style="fill:#fff;fill-opacity:1;stroke:#000;stroke-width:1.51181102;stroke-linecap:butt;stroke-linejoin:miter;stroke-opacity:1;stroke-miterlimit:4;stroke-dasharray:none" transform="matrix(.26458 0 0 .26458 0 0)"/></g></g></svg>
